Dominus_Dark_Funeral/scalable/apps/firewall.svg

<?xml version="1.0" encoding="UTF-8" standalone="no"?><svg xmlns:dc="http://purl.org/dc/elements/1.1/" xmlns:cc="http://creativecommons.org/ns#" xmlns:rdf="http://www.w3.org/1999/02/22-rdf-syntax-ns#" xmlns="http://www.w3.org/2000/svg" xmlns:xlink="http://www.w3.org/1999/xlink" width="48" height="48" viewBox="0 0 12.7 12.7"><metadata><rdf:RDF><cc:Work><dc:format>image/svg+xml</dc:format><dc:type rdf:resource="http://purl.org/dc/dcmitype/StillImage"/><dc:title/></cc:Work></rdf:RDF></metadata><defs><linearGradient id="f"><stop offset="0" stop-color="#b8a9a9"/><stop offset="1" stop-color="#ececec"/></linearGradient><linearGradient id="e"><stop offset="0" stop-color="#2b1100"/><stop offset="1" stop-color="#2b1100" stop-opacity="0"/></linearGradient><linearGradient id="d"><stop offset="0"/><stop stop-opacity="0" offset="1"/></linearGradient><linearGradient id="c"><stop offset="0" stop-color="#f4d7d7"/><stop offset=".34" stop-color="#e9afaf"/><stop offset="1" stop-color="#c83737"/></linearGradient><linearGradient id="a"><stop offset="0" stop-color="#ff0"/><stop offset="1" stop-color="#ff7f2a"/></linearGradient><radialGradient xlink:href="#a" id="l" cx="24.31" cy="25.62" fx="24.31" fy="25.62" r="8.47" gradientTransform="matrix(.24368 0 0 .36433 .5 -3.09)" gradientUnits="userSpaceOnUse"/><linearGradient id="b"><stop stop-color="#ff5b21" stop-opacity=".3" offset="0"/><stop stop-color="#6c5b55" stop-opacity=".27" offset="1"/></linearGradient><radialGradient id="h" cx="1" cy="-1" r="10" gradientTransform="matrix(.44648 0 0 .20092 5.68 -1.65)" gradientUnits="userSpaceOnUse" xlink:href="#b"/><radialGradient xlink:href="#c" id="g" cx="6.34" cy="6.35" fx="6.34" fy="6.35" r="5.35" gradientTransform="matrix(1 .00118 -.00138 1.16884 0 -1.08)" gradientUnits="userSpaceOnUse"/><linearGradient xlink:href="#d" id="k" x1="2.05" y1="2.99" x2="13.9" y2="12.29" gradientUnits="userSpaceOnUse" gradientTransform="translate(1.56 1.9) scale(.7431)"/><linearGradient xlink:href="#d" id="i" x1="5.04" y1="3.72" x2="17.21" y2="10.92" gradientUnits="userSpaceOnUse"/><linearGradient xlink:href="#f" id="j" x1="6.35" y1="1.98" x2="6.35" y2="10.72" gradientUnits="userSpaceOnUse"/></defs><path fill="url(#g)" d="M6.35.1C4.81.1 3.57.38 2.66.96A3.67 3.67 0 0 0 1 4.22c0 1.91 1.54 4.47 2.01 5.2.54.85 1.13 1.61 1.65 2.16.68.7 1.21 1.03 1.69 1.03s1.01-.33 1.69-1.03a15.2 15.2 0 0 0 1.65-2.15c.47-.74 2-3.3 2-5.21 0-1.42-.57-2.54-1.65-3.25A6.75 6.75 0 0 0 6.35.1z"/><path d="M6.35.1C4.81.1 3.57.38 2.66.96A3.67 3.67 0 0 0 1 4.22c0 1.91 1.54 4.47 2.01 5.2.54.85 1.13 1.61 1.65 2.16.68.7 1.21 1.03 1.69 1.03s1.01-.33 1.69-1.03a15.2 15.2 0 0 0 1.65-2.15c.47-.74 2-3.3 2-5.21 0-1.42-.57-2.54-1.65-3.25A6.75 6.75 0 0 0 6.35.1zm0 .03C6.91.15 7.44.2 7.9.31a5.82 5.82 0 0 1 1.6.66 3.65 3.65 0 0 1 1.24 1.36c.14.27.25.57.32.88a4.61 4.61 0 0 1-.14 2.53c-.15.52-.36 1.04-.58 1.52-.44.97-.95 1.8-1.18 2.17a15.2 15.2 0 0 1-1.65 2.15 4.9 4.9 0 0 1-.92.78.96.96 0 0 1-.24.1.96.96 0 0 1-.24-.1 4.76 4.76 0 0 1-.92-.78 14.41 14.41 0 0 1-1.65-2.15 19.2 19.2 0 0 1-1.18-2.17c-.22-.48-.43-1-.58-1.52a4.6 4.6 0 0 1-.14-2.52 3.73 3.73 0 0 1 .84-1.64 3.65 3.65 0 0 1 1.45-1A6.83 6.83 0 0 1 6.35.13z" opacity=".2"/><path color="#000" fill="#ff8951" fill-opacity=".21" d="M10.94 1.85l-.16-.23H8.36V.3a6.75 6.75 0 0 0-.2-.05 6.75 6.75 0 0 0-.02 0v1.37H3.89V.42L3.67.5v1.12H1.9a3.67 3.67 0 0 0-.06.07 3.67 3.67 0 0 0-.12.16H5.9v2H1.66V1.94a3.67 3.67 0 0 0-.04.05 3.67 3.67 0 0 0-.18.3v1.58H1a3.67 3.67 0 0 0 0 .2 3.67 3.67 0 0 0 0 .02h2.67v2H1.38l.28.74v-.5H5.9v2H2.4l.13.22h1.14v1.75l.38.49H5.9v1.68l.23.08v-1.76h2.53l.17-.23h-.47v-2h1.81l.12-.23H6.13v-2h4.24v1.86l.22-.41V6.3h.64l.08-.22H8.36v-2h3.32c0-.08-.02-.15-.03-.22H10.6V1.85z"/><path color="#000" fill="#d24b4b" d="M5.9 6.09h4.25v2H5.9z"/><path transform="scale(1 -1)" color="#000" fill="url(#h)" d="M5.9-3.86h4.46v2.23H5.9z"/><path color="#000" fill="#d85959" d="M3.67 3.86h4.24v2H3.67z"/><path color="#000" fill="#d34f4f" d="M5.9 1.62h4.25v2.01H5.9z"/><path color="#000" fill="#4d000f" fill-opacity=".26" d="M3.67.5l-.22.07v.83H2.1a3.67 3.67 0 0 0-.02.02 3.67 3.67 0 0 0-.19.2h3.78v2.01H1.44V2.3a3.67 3.67 0 0 0-.17.34 3.67 3.67 0 0 0-.05.17v.83h-.2a3.67 3.67 0 0 0 0 .06 3.67 3.67 0 0 0-.02.17h2.45v2H1.3l.14.38V6.1h4.24v2h-3.4l.13.23h1.04V10l.22.3V8.32h4.24v2.01h-4.2c.05.08.1.15.17.22h1.8v1.84c.08.04.15.05.22.07v-1.9h2.93l.17-.23h-.86V8.32h2.15l.12-.22h-.04V6.09h.94l.08-.23H8.14v-2h3.51l-.02-.23h-1.26v-2h.41c0-.02-.01-.04-.03-.05-.06-.07-.14-.12-.2-.18H8.13V.24A6.75 6.75 0 0 0 7.9.21V1.4H3.67z"/><path opacity=".65" fill="url(#i)" d="M7.38 12.14c.21-.16.42-.31.66-.56a15.2 15.2 0 0 0 1.65-2.15 21 21 0 0 0 1.18-2.17c.22-.48.42-1 .57-1.52.15-.5.24-1 .24-1.47L10.41 3 5.2 9.94z"/><path d="M6.35 1.98c-.9.54-2.3.86-4.06 1.02.23 2.84 1.12 6.13 4.06 7.72 2.94-1.6 3.83-4.88 4.06-7.72-1.76-.16-3.16-.48-4.06-1.02z" color="#000" fill="url(#j)"/><path opacity=".4" fill="url(#k)" d="M6.62 10.54c.26-.16.51-.31.74-.5a6.6 6.6 0 0 0 1.5-1.71c.2-.32.38-.66.54-1 .08-.18.11-.38.18-.57L6.57 3.75l-.14.8-1.54 2.51.04 1.79z"/><path fill="url(#l)" d="M5.77 3.17c.13.98-.25 1.21-1.15 3.09-.89 1.88.82 3.08.82 3.08-.69-2.27.77-3.09.77-3.09a3.5 3.5 0 0 0 .58 2.15c.25-.08.74-.44.74-.44 0 .44-.26 1.38-.26 1.38s.9-.7 1.17-1.84c.27-1.14-.54-2.28-.54-2.28.05.81-.22 1.6-.75 2.21a.44.44 0 0 0 .06-.1c.1-.2.25-.7.16-1.85a2.95 2.95 0 0 0-1.6-2.31z"/></svg>

<?xml version="1.0" encoding="UTF-8" standalone="no"?>
<svg
   xmlns:dc="http://purl.org/dc/elements/1.1/"
   xmlns:cc="http://creativecommons.org/ns#"
   xmlns:rdf="http://www.w3.org/1999/02/22-rdf-syntax-ns#"
   xmlns:svg="http://www.w3.org/2000/svg"
   xmlns="http://www.w3.org/2000/svg"
   xmlns:xlink="http://www.w3.org/1999/xlink"
   xmlns:sodipodi="http://sodipodi.sourceforge.net/DTD/sodipodi-0.dtd"
   xmlns:inkscape="http://www.inkscape.org/namespaces/inkscape"
   width="48"
   height="48"
   viewBox="0 0 12.7 12.7"
   version="1.1"
   id="svg68"
   sodipodi:docname="firewall.svg"
   inkscape:version="0.92.4 (5da689c313, 2019-01-14)">
  <sodipodi:namedview
     pagecolor="#ffffff"
     bordercolor="#666666"
     borderopacity="1"
     objecttolerance="10"
     gridtolerance="10"
     guidetolerance="10"
     inkscape:pageopacity="0"
     inkscape:pageshadow="2"
     inkscape:window-width="1112"
     inkscape:window-height="480"
     id="namedview70"
     showgrid="false"
     inkscape:zoom="4.9166667"
     inkscape:cx="2.1355932"
     inkscape:cy="24"
     inkscape:window-x="0"
     inkscape:window-y="25"
     inkscape:window-maximized="0"
     inkscape:current-layer="svg68" />
  <metadata
     id="metadata2">
    <rdf:RDF>
      <cc:Work>
        <dc:format>image/svg+xml</dc:format>
        <dc:type
           rdf:resource="http://purl.org/dc/dcmitype/StillImage" />
        <dc:title></dc:title>
      </cc:Work>
    </rdf:RDF>
  </metadata>
  <defs
     id="defs42">
    <linearGradient
       id="f">
      <stop
         offset="0"
         stop-color="#b8a9a9"
         id="stop4" />
      <stop
         offset="1"
         stop-color="#ececec"
         id="stop6" />
    </linearGradient>
    <linearGradient
       id="e">
      <stop
         offset="0"
         stop-color="#2b1100"
         id="stop9" />
      <stop
         offset="1"
         stop-color="#2b1100"
         stop-opacity="0"
         id="stop11" />
    </linearGradient>
    <linearGradient
       id="d">
      <stop
         offset="0"
         id="stop14" />
      <stop
         stop-opacity="0"
         offset="1"
         id="stop16" />
    </linearGradient>
    <linearGradient
       id="c">
      <stop
         offset="0"
         stop-color="#f4d7d7"
         id="stop19" />
      <stop
         offset=".34"
         stop-color="#e9afaf"
         id="stop21" />
      <stop
         offset="1"
         stop-color="#c83737"
         id="stop23" />
    </linearGradient>
    <linearGradient
       id="a">
      <stop
         offset="0"
         stop-color="#ff0"
         id="stop26" />
      <stop
         offset="1"
         stop-color="#ff7f2a"
         id="stop28" />
    </linearGradient>
    <radialGradient
       xlink:href="#a"
       id="l"
       cx="24.31"
       cy="25.62"
       fx="24.31"
       fy="25.62"
       r="8.47"
       gradientTransform="matrix(0.24368,0,0,0.36433,0.5,-3.09)"
       gradientUnits="userSpaceOnUse" />
    <linearGradient
       id="b">
      <stop
         stop-color="#ff5b21"
         stop-opacity=".3"
         offset="0"
         id="stop32" />
      <stop
         stop-color="#6c5b55"
         stop-opacity=".27"
         offset="1"
         id="stop34" />
    </linearGradient>
    <radialGradient
       id="h"
       cx="1"
       cy="-1"
       r="10"
       gradientTransform="matrix(0.44648,0,0,-0.20092,5.68,1.65)"
       gradientUnits="userSpaceOnUse"
       xlink:href="#b" />
    <radialGradient
       xlink:href="#c"
       id="g"
       cx="6.34"
       cy="6.35"
       fx="6.34"
       fy="6.35"
       r="5.35"
       gradientTransform="matrix(1,0.00118,-0.00138,1.16884,0,-1.08)"
       gradientUnits="userSpaceOnUse" />
    <linearGradient
       xlink:href="#d"
       id="k"
       x1="2.05"
       y1="2.99"
       x2="13.9"
       y2="12.29"
       gradientUnits="userSpaceOnUse"
       gradientTransform="matrix(0.7431,0,0,0.7431,1.56,1.9)" />
    <linearGradient
       xlink:href="#d"
       id="i"
       x1="5.04"
       y1="3.72"
       x2="17.21"
       y2="10.92"
       gradientUnits="userSpaceOnUse" />
    <linearGradient
       xlink:href="#f"
       id="j"
       x1="6.35"
       y1="1.98"
       x2="6.35"
       y2="10.72"
       gradientUnits="userSpaceOnUse" />
  </defs>
  <path
     d="M 6.35,0.1 C 4.81,0.1 3.57,0.38 2.66,0.96 A 3.67,3.67 0 0 0 1,4.22 c 0,1.91 1.54,4.47 2.01,5.2 0.54,0.85 1.13,1.61 1.65,2.16 0.68,0.7 1.21,1.03 1.69,1.03 0.48,0 1.01,-0.33 1.69,-1.03 A 15.2,15.2 0 0 0 9.69,9.43 c 0.47,-0.74 2,-3.3 2,-5.21 0,-1.42 -0.57,-2.54 -1.65,-3.25 A 6.75,6.75 0 0 0 6.35,0.1 Z"
     id="path44"
     style="fill:url(#g)"
     inkscape:connector-curvature="0" />
  <path
     d="M 6.35,0.1 C 4.81,0.1 3.57,0.38 2.66,0.96 A 3.67,3.67 0 0 0 1,4.22 c 0,1.91 1.54,4.47 2.01,5.2 0.54,0.85 1.13,1.61 1.65,2.16 0.68,0.7 1.21,1.03 1.69,1.03 0.48,0 1.01,-0.33 1.69,-1.03 A 15.2,15.2 0 0 0 9.69,9.43 c 0.47,-0.74 2,-3.3 2,-5.21 0,-1.42 -0.57,-2.54 -1.65,-3.25 A 6.75,6.75 0 0 0 6.35,0.1 Z m 0,0.03 C 6.91,0.15 7.44,0.2 7.9,0.31 a 5.82,5.82 0 0 1 1.6,0.66 3.65,3.65 0 0 1 1.24,1.36 c 0.14,0.27 0.25,0.57 0.32,0.88 A 4.61,4.61 0 0 1 10.92,5.74 C 10.77,6.26 10.56,6.78 10.34,7.26 9.9,8.23 9.39,9.06 9.16,9.43 A 15.2,15.2 0 0 1 7.51,11.58 4.9,4.9 0 0 1 6.59,12.36 0.96,0.96 0 0 1 6.35,12.46 0.96,0.96 0 0 1 6.11,12.36 4.76,4.76 0 0 1 5.19,11.58 14.41,14.41 0 0 1 3.54,9.43 19.2,19.2 0 0 1 2.36,7.26 C 2.14,6.78 1.93,6.26 1.78,5.74 A 4.6,4.6 0 0 1 1.64,3.22 3.73,3.73 0 0 1 2.48,1.58 3.65,3.65 0 0 1 3.93,0.58 6.83,6.83 0 0 1 6.35,0.13 Z"
     id="path46"
     inkscape:connector-curvature="0"
     style="opacity:0.2" />
  <path
     d="M 10.94,1.85 10.78,1.62 H 8.36 V 0.3 a 6.75,6.75 0 0 0 -0.2,-0.05 6.75,6.75 0 0 0 -0.02,0 V 1.62 H 3.89 V 0.42 L 3.67,0.5 V 1.62 H 1.9 A 3.67,3.67 0 0 0 1.84,1.69 3.67,3.67 0 0 0 1.72,1.85 H 5.9 v 2 H 1.66 V 1.94 A 3.67,3.67 0 0 0 1.62,1.99 3.67,3.67 0 0 0 1.44,2.29 V 3.87 H 1 a 3.67,3.67 0 0 0 0,0.2 3.67,3.67 0 0 0 0,0.02 h 2.67 v 2 H 1.38 L 1.66,6.83 V 6.33 H 5.9 v 2 H 2.4 l 0.13,0.22 h 1.14 v 1.75 l 0.38,0.49 H 5.9 v 1.68 l 0.23,0.08 V 10.79 H 8.66 L 8.83,10.56 H 8.36 v -2 h 1.81 L 10.29,8.33 H 6.13 v -2 h 4.24 V 8.19 L 10.59,7.78 V 6.3 h 0.64 L 11.31,6.08 H 8.36 v -2 h 3.32 C 11.68,4 11.66,3.93 11.65,3.86 H 10.6 V 1.85 Z"
     id="path48"
     inkscape:connector-curvature="0"
     style="color:#000000;fill:#ff8951;fill-opacity:0.21000001" />
  <path
     d="m 5.9,6.09 h 4.25 v 2 H 5.9 Z"
     id="path50"
     inkscape:connector-curvature="0"
     style="color:#000000;fill:#d24b4b" />
  <path
     d="m 5.9,3.86 h 4.46 V 1.63 H 5.9 Z"
     id="path52"
     style="color:#000000;fill:url(#h)"
     inkscape:connector-curvature="0" />
  <path
     d="m 3.67,3.86 h 4.24 v 2 H 3.67 Z"
     id="path54"
     inkscape:connector-curvature="0"
     style="color:#000000;fill:#d85959" />
  <path
     d="m 5.9,1.62 h 4.25 V 3.63 H 5.9 Z"
     id="path56"
     inkscape:connector-curvature="0"
     style="color:#000000;fill:#d34f4f" />
  <path
     d="M 3.67,0.5 3.45,0.57 V 1.4 H 2.1 A 3.67,3.67 0 0 0 2.08,1.42 3.67,3.67 0 0 0 1.89,1.62 H 5.67 V 3.63 H 1.44 V 2.3 A 3.67,3.67 0 0 0 1.27,2.64 3.67,3.67 0 0 0 1.22,2.81 V 3.64 H 1.02 A 3.67,3.67 0 0 0 1.02,3.7 3.67,3.67 0 0 0 1,3.87 h 2.45 v 2 H 1.3 L 1.44,6.25 V 6.1 h 4.24 v 2 H 2.28 L 2.41,8.33 H 3.45 V 10 l 0.22,0.3 V 8.32 h 4.24 v 2.01 h -4.2 c 0.05,0.08 0.1,0.15 0.17,0.22 h 1.8 v 1.84 c 0.08,0.04 0.15,0.05 0.22,0.07 v -1.9 H 8.83 L 9,10.33 H 8.14 V 8.32 h 2.15 L 10.41,8.1 H 10.37 V 6.09 h 0.94 L 11.39,5.86 H 8.14 v -2 h 3.51 L 11.63,3.63 h -1.26 v -2 h 0.41 C 10.78,1.61 10.77,1.59 10.75,1.58 10.69,1.51 10.61,1.46 10.55,1.4 H 8.13 V 0.24 A 6.75,6.75 0 0 0 7.9,0.21 V 1.4 H 3.67 Z"
     id="path58"
     inkscape:connector-curvature="0"
     style="color:#000000;fill:#4d000f;fill-opacity:0.26000001" />
  <path
     d="M 7.38,12.14 C 7.59,11.98 7.8,11.83 8.04,11.58 A 15.2,15.2 0 0 0 9.69,9.43 21,21 0 0 0 10.87,7.26 c 0.22,-0.48 0.42,-1 0.57,-1.52 0.15,-0.5 0.24,-1 0.24,-1.47 L 10.41,3 5.2,9.94 Z"
     id="path60"
     style="opacity:0.65;fill:url(#i)"
     inkscape:connector-curvature="0" />
  <path
     d="M 6.35,1.98 C 5.45,2.52 4.05,2.84 2.29,3 2.52,5.84 3.41,9.13 6.35,10.72 9.29,9.12 10.18,5.84 10.41,3 8.65,2.84 7.25,2.52 6.35,1.98 Z"
     id="path62"
     style="color:#000000;fill:url(#j)"
     inkscape:connector-curvature="0" />
  <path
     d="m 6.62,10.54 c 0.26,-0.16 0.51,-0.31 0.74,-0.5 A 6.6,6.6 0 0 0 8.86,8.33 C 9.06,8.01 9.24,7.67 9.4,7.33 9.48,7.15 9.51,6.95 9.58,6.76 L 6.57,3.75 6.43,4.55 4.89,7.06 4.93,8.85 Z"
     id="path64"
     style="opacity:0.4;fill:url(#k)"
     inkscape:connector-curvature="0" />
  <path
     d="M 5.77,3.17 C 5.9,4.15 5.52,4.38 4.62,6.26 3.73,8.14 5.44,9.34 5.44,9.34 4.75,7.07 6.21,6.25 6.21,6.25 A 3.5,3.5 0 0 0 6.79,8.4 C 7.04,8.32 7.53,7.96 7.53,7.96 c 0,0.44 -0.26,1.38 -0.26,1.38 0,0 0.9,-0.7 1.17,-1.84 C 8.71,6.36 7.9,5.22 7.9,5.22 7.95,6.03 7.68,6.82 7.15,7.43 A 0.44,0.44 0 0 0 7.21,7.33 C 7.31,7.13 7.46,6.63 7.37,5.48 A 2.95,2.95 0 0 0 5.77,3.17 Z"
     id="path66"
     style="fill:url(#l)"
     inkscape:connector-curvature="0" />
</svg>
